X: 110755
T: Killaval #2
S: B.Flaherty
Z: B.Black
M: 6/8
L: 1/8
R: jig
K: D
DFF AFF | BFF AFE | DFF AFF | EDE GFE |
DFF AFF | BFF AFA | dcd ege | fdc d2 A :|
Add fdd | add fdd | ace gfe | ace gfe |
|1 Add fdd | add fdd | gfe dbB | E2 F GFE :|
|2 f3 gfg | agf g2 e | fdB AGF | E2 F GFE ||
